packages/icons/svg/Fill/lock.svg

<svg fill="none" height="24" viewBox="0 0 24 24" width="24" xmlns="http://www.w3.org/2000/svg"><path clip-rule="evenodd" d="m12 14c-.552 0-1 .448-1 1s.448 1 1 1 1-.448 1-1-.448-1-1-1zm0 3.9999c-1.654 0-3.00001-1.346-3.00001-3s1.34601-3 3.00001-3 3 1.346 3 3-1.346 3-3 3zm-2.00003-11.88884c0-1.164.89703-2.11099 2.00003-2.11099s2 .94699 2 2.11099v1.889h-4.00003zm7.00003 1.88894h-1v-1.889c0-2.266-1.794-4.111-4-4.111-2.20603 0-4.00003 1.845-4.00003 4.111v1.889h-1c-1.654 0-3 1.346-3 3v8c0 1.654 1.346 3 3 3h10.00003c1.654 0 3-1.346 3-3v-8c0-1.654-1.346-3-3-3z" fill="#6b7280" fill-rule="evenodd"/></svg>

<svg width="24" height="24" viewBox="0 0 24 24" fill="none" xmlns="http://www.w3.org/2000/svg">
<g id="Icon/Fill/lock">
<path id="Mask" fill-rule="evenodd" clip-rule="evenodd" d="M12 14C11.448 14 11 14.448 11 15C11 15.552 11.448 16 12 16C12.552 16 13 15.552 13 15C13 14.448 12.552 14 12 14ZM12 18C10.346 18 9 16.654 9 15C9 13.346 10.346 12 12 12C13.654 12 15 13.346 15 15C15 16.654 13.654 18 12 18ZM10 6.111C10 4.947 10.897 4 12 4C13.103 4 14 4.947 14 6.111V8H10V6.111ZM17 8H16V6.111C16 3.845 14.206 2 12 2C9.794 2 8 3.845 8 6.111V8H7C5.346 8 4 9.346 4 11V19C4 20.654 5.346 22 7 22H17C18.654 22 20 20.654 20 19V11C20 9.346 18.654 8 17 8Z" fill="#000000"/>
</g>
</svg>
